packages/calcite-ui-icons/icons/portal-other-16.svg

<?xml version="1.0" encoding="UTF-8"?><svg id="icons" xmlns="http://www.w3.org/2000/svg" viewBox="0 0 16 16"><defs><style>.cls-1{fill:none;}</style></defs><rect class="cls-1" width="16" height="16"/><path d="M9,13v-.75006l3-1.75-1.57935-.9212-.99225.57886.58691.34235-1.51544.88403-1.51532-.88403.58698-.34241-.99225-.57886-1.57928.92126,3,1.75018v.74988c-.55231,0-1,.44769-1,1v1c0,.55225.44769,1,1,1h1c.55231,0,1-.44775,1-1v-1c0-.55231-.44769-1-1-1ZM9,15h-1v-1h1v1ZM8,3v1h1v-1c.55231,0,1-.44775,1-1v-1c0-.55231-.44769-1-1-1h-1c-.55231,0-1,.44769-1,1v1c0,.55225.44769,1,1,1ZM8,1h1v1h-1v-1ZM15,4.94751v5.49518c0,2.32605-1.74011,4.22345-3.99103,4.50116,0,0,.00055-.92487,0-.94385,1.69879-.26758,2.99103-1.78473,2.99103-3.55762v-4.85059l-4-1.81384v-.06677c.2948-.17303.54498-.41016.71844-.7052l4.28156,1.94153ZM5.00897,7.49994l3.49084,2.04175,3.49121-2.04175-3.49121-2.04163-3.49084,2.04163ZM10.01532,7.49994l-1.51544.88403-1.51532-.88403,1.51532-.88391,1.51544.88391ZM4.88086,14h1.11914v1h-1.11908c-1.59125,0-2.88092-1.28918-2.88092-2.88049v-5.08667c0-1.06677.60175-2.04517,1.55304-2.52716l2.77869-1.40741c.16846.255.40411.45319.66827.60767v.17438l-2.99609,1.51813c-.61914.31348-1.00391.93945-1.00391,1.63477v5.08594c0,1.03711.84375,1.88086,1.88086,1.88086Z"/></svg>

<svg xmlns="http://www.w3.org/2000/svg" viewBox="0 0 16 16"><path fill="none" d="M0 0h16v16H0z"/><path d="M9 13v-.75l3-1.75-1.58-.921-.992.579.587.342-1.515.884-1.515-.884.587-.342-.993-.58L5 10.5l3 1.75V13a1 1 0 0 0-1 1v1a1 1 0 0 0 1 1h1a1 1 0 0 0 1-1v-1a1 1 0 0 0-1-1zm0 2H8v-1h1v1zM8 3v1h1V3a1 1 0 0 0 1-1V1a1 1 0 0 0-1-1H8a1 1 0 0 0-1 1v1a1 1 0 0 0 1 1zm0-2h1v1H8V1zm7 3.948v5.495a4.534 4.534 0 0 1-3.991 4.5V14C12.708 13.732 14 12.215 14 10.442v-4.85l-4-1.814v-.067c.295-.173.545-.41.718-.705L15 4.948zM5.009 7.5l3.49 2.042L11.992 7.5 8.5 5.458 5.009 7.5zm5.006 0L8.5 8.384 6.985 7.5 8.5 6.616l1.515.884zM4.881 14H6v1H4.88A2.88 2.88 0 0 1 2 12.12V7.033c0-1.067.602-2.045 1.553-2.527l2.779-1.408c.168.255.404.453.668.608v.174L4.004 5.398C3.384 5.712 3 6.338 3 7.033v5.086C3 13.156 3.844 14 4.88 14z"/></svg>
